X: 43009
T: Willows, The
R: waltz
M: 3/4
K: Dmajor
DE|:F3E F<A|D3D dc|B3A B<d|A3D FA|
[1B3A B<d|A2 F2 (3DEF|G2 GA/G/ FG|E3A AG:|
[2B3A B<d|A2 F2 DE|F4 EF/E/|D3A dc||
|:A4 dc|A4 dA|AB/A/ GF GA|E3D dc|
A4 dc|A4 FD|GF GA Bd|e3d dc|
A4 dc|A4dA|AB/A/ GF GA|E4 DE|
F3E F<A|F3E F<A|F2 E4|E4 DE||

